src/ui/assets/img/transactions/t-sponsored-active-48.svg

<?xml version="1.0" encoding="UTF-8"?>
<svg width="48px" height="48px" viewBox="0 0 48 48" version="1.1" xmlns="http://www.w3.org/2000/svg" xmlns:xlink="http://www.w3.org/1999/xlink">
    <!-- Generator: Sketch 52.1 (67048) - http://www.bohemiancoding.com/sketch -->
    <title>Icon/t-Sponsored-Plus-48</title>
    <desc>Created with Sketch.</desc>
    <g id="Icon/t-Sponsored-Plus-48" stroke="none" stroke-width="1" fill="none" fill-rule="evenodd">
        <rect id="ico-zone" fill="#D8D8D8" fill-rule="nonzero" opacity="0" x="0" y="0" width="48" height="48"></rect>
        <rect id="circle" fill-opacity="0.1" fill="#81C926" x="0" y="0" width="48" height="48" rx="24"></rect>
        <path d="M37.9897711,29.4228518 C38.6421536,27.741021 39,25.9123003 39,24 C39,15.7157288 32.2842712,9 24,9 C15.7157288,9 9,15.7157288 9,24 C9,32.2842712 15.7157288,39 24,39 C25.9123003,39 27.741021,38.6421536 29.4228518,37.9897711 C29.0560679,37.7491432 28.7163969,37.4705887 28.4094137,37.1596827 C27.0241513,37.6236435 25.5414294,37.875 24,37.875 C16.3370491,37.875 10.125,31.6629509 10.125,24 C10.125,16.3370491 16.3370491,10.125 24,10.125 C31.6629509,10.125 37.875,16.3370491 37.875,24 C37.875,25.5414294 37.6236435,27.0241513 37.1596827,28.4094137 C37.4705887,28.7163969 37.7491432,29.0560679 37.9897711,29.4228518 Z M18.9375,23.4375 C16.8664322,23.4375 15.1875,21.7585678 15.1875,19.6875 C15.1875,17.6164322 16.8664322,15.9375 18.9375,15.9375 C21.0085678,15.9375 22.6875,17.6164322 22.6875,19.6875 C22.6875,21.7585678 21.0085678,23.4375 18.9375,23.4375 Z M18.9375,22.3125 C20.3872475,22.3125 21.5625,21.1372475 21.5625,19.6875 C21.5625,18.2377525 20.3872475,17.0625 18.9375,17.0625 C17.4877525,17.0625 16.3125,18.2377525 16.3125,19.6875 C16.3125,21.1372475 17.4877525,22.3125 18.9375,22.3125 Z M30.1078395,17.9102476 L30.1078395,17.9102476 C30.3275095,18.1299175 30.3275095,18.4860728 30.1078395,18.7057427 L18.7057427,30.1078395 C18.4860728,30.3275095 18.1299175,30.3275095 17.9102476,30.1078395 L17.9102476,30.1078395 C17.6905777,29.8881696 17.6905777,29.5320143 17.9102476,29.3123444 L29.3123444,17.9102476 C29.5320143,17.6905777 29.8881696,17.6905777 30.1078395,17.9102476 Z" id="Oval-2" fill="#81C926" fill-rule="nonzero"></path>
        <path d="M26.0591031,30.5583373 C25.5902255,29.9323066 25.3125,29.1548364 25.3125,28.3125 C25.3125,26.2414322 26.9914322,24.5625 29.0625,24.5625 C30.2038168,24.5625 31.2260478,25.072367 31.9138426,25.8767508 C31.4099726,25.8886309 30.9210084,25.9607448 30.4538729,26.0861699 C30.050497,25.8335425 29.5735535,25.6875 29.0625,25.6875 C27.6127525,25.6875 26.4375,26.8627525 26.4375,28.3125 C26.4375,28.6172682 26.4894381,28.9099056 26.5849458,29.1820439 C26.3577314,29.61323 26.1799386,30.0745064 26.0591031,30.5583373 Z" id="Combined-Shape" fill="#81C926" fill-rule="nonzero"></path>
        <path d="M33.375,32.4375 L35.625,32.4375 C35.9356602,32.4375 36.1875,32.6893398 36.1875,33 C36.1875,33.3106602 35.9356602,33.5625 35.625,33.5625 L33.375,33.5625 L33.375,35.8125 C33.375,36.1231602 33.1231602,36.375 32.8125,36.375 C32.5018398,36.375 32.25,36.1231602 32.25,35.8125 L32.25,33.5625 L30,33.5625 C29.6893398,33.5625 29.4375,33.3106602 29.4375,33 C29.4375,32.6893398 29.6893398,32.4375 30,32.4375 L32.25,32.4375 L32.25,30.1875 C32.25,29.8768398 32.5018398,29.625 32.8125,29.625 C33.1231602,29.625 33.375,29.8768398 33.375,30.1875 L33.375,32.4375 Z M32.8125,39 C29.3952381,39 26.625,36.2297619 26.625,32.8125 C26.625,29.3952381 29.3952381,26.625 32.8125,26.625 C36.2297619,26.625 39,29.3952381 39,32.8125 C39,36.2297619 36.2297619,39 32.8125,39 Z M32.8125,37.875 C35.6084415,37.875 37.875,35.6084415 37.875,32.8125 C37.875,30.0165585 35.6084415,27.75 32.8125,27.75 C30.0165585,27.75 27.75,30.0165585 27.75,32.8125 C27.75,35.6084415 30.0165585,37.875 32.8125,37.875 Z" id="Combined-Shape" fill="#81C926" fill-rule="nonzero"></path>
    </g>
</svg>

<?xml version="1.0" encoding="utf-8"?>
<!-- Generator: Adobe Illustrator 16.0.0, SVG Export Plug-In . SVG Version: 6.00 Build 0)  -->
<!DOCTYPE svg PUBLIC "-//W3C//DTD SVG 1.1//EN" "http://www.w3.org/Graphics/SVG/1.1/DTD/svg11.dtd">
<svg version="1.1" id="Layer_1" xmlns="http://www.w3.org/2000/svg" xmlns:xlink="http://www.w3.org/1999/xlink" x="0px" y="0px"
	 width="48px" height="48px" viewBox="0 0 48 48" enable-background="new 0 0 48 48" xml:space="preserve">
<title>Icon/t-Sponsored-Plus-48</title>
<desc>Created with Sketch.</desc>
<g id="Icon_x2F_t-Sponsored-Plus-48">
	<rect id="ico-zone" fill="#D8D8D8" fill-opacity="0" width="48" height="48"/>
	<path id="circle" opacity="0.1" fill="#03A615" enable-background="new    " d="M24,0L24,0c13.255,0,24,10.745,24,24l0,0
		c0,13.255-10.745,24-24,24l0,0C10.745,48,0,37.255,0,24l0,0C0,10.745,10.745,0,24,0z"/>
	<path id="Oval-2" fill="#03A615" d="M37.99,29.423C38.643,27.741,39,25.912,39,24c0-8.284-6.716-15-15-15S9,15.716,9,24
		s6.716,15,15,15c1.912,0,3.741-0.357,5.423-1.01c-0.366-0.241-0.706-0.52-1.014-0.83c-1.386,0.463-2.868,0.715-4.409,0.715
		c-7.663,0-13.875-6.212-13.875-13.875S16.337,10.125,24,10.125S37.875,16.337,37.875,24c0,1.541-0.252,3.024-0.715,4.409
		C37.471,28.717,37.749,29.057,37.99,29.423z M18.938,23.438c-2.071,0-3.75-1.679-3.75-3.75s1.679-3.75,3.75-3.75
		s3.75,1.679,3.75,3.75S21.009,23.438,18.938,23.438z M18.938,22.313c1.45,0,2.625-1.175,2.625-2.625s-1.175-2.625-2.625-2.625
		s-2.625,1.175-2.625,2.625S17.488,22.313,18.938,22.313z M30.107,17.91L30.107,17.91c0.221,0.22,0.221,0.576,0,0.795L18.706,30.107
		c-0.22,0.221-0.576,0.221-0.795,0l0,0c-0.22-0.219-0.22-0.575,0-0.795L29.313,17.91C29.532,17.69,29.889,17.69,30.107,17.91z"/>
	<path id="Combined-Shape" fill="#03A615" d="M26.059,30.559c-0.469-0.627-0.746-1.404-0.746-2.246c0-2.071,1.679-3.75,3.75-3.75
		c1.141,0,2.164,0.51,2.852,1.314c-0.504,0.012-0.993,0.084-1.46,0.209c-0.403-0.252-0.88-0.398-1.392-0.398
		c-1.449,0-2.625,1.176-2.625,2.625c0,0.305,0.052,0.598,0.147,0.869C26.357,29.613,26.18,30.074,26.059,30.559z"/>
	<path id="Combined-Shape_1_" fill="#03A615" d="M33.375,32.438h2.25c0.311,0,0.563,0.252,0.563,0.563s-0.252,0.563-0.563,0.563
		h-2.25v2.25c0,0.311-0.252,0.563-0.563,0.563s-0.563-0.252-0.563-0.563v-2.25H30c-0.311,0-0.563-0.252-0.563-0.563
		s0.252-0.563,0.563-0.563h2.25v-2.25c0-0.311,0.252-0.563,0.563-0.563s0.563,0.252,0.563,0.563V32.438z M32.813,39
		c-3.418,0-6.188-2.771-6.188-6.188s2.77-6.188,6.188-6.188S39,29.396,39,32.813S36.23,39,32.813,39z M32.813,37.875
		c2.796,0,5.063-2.267,5.063-5.063s-2.267-5.063-5.063-5.063s-5.063,2.267-5.063,5.063S30.017,37.875,32.813,37.875z"/>
</g>
</svg>
